X:1
T:Title
%%score ( 1 2 ) 3
L:1/8
Q:1/4=107
M:4/4
K:C
V:1 treble nm="Grand Piano, Soprano"
V:2 treble 
V:3 bass nm="Choir Pad, Hear the Happy Voices Ringing"
V:1
 [CE]>[CE] [EG]2 [EG]2 [_E^F]2 | [EG]2 [FA]2 [EG]4 | [EG]>[EG] [FA]2 F2 [Fc]2 | [FA]2 [EG]6 | %4
w: By~Joseph~Lincoln~Hall * * * *||||
 [CE]>[CE] [EG]2 [EG]2 [_E^F]2 | [EG]2 [Ec]2 [Ge]4 | [Ge]>[Ge] [Gd]2 GA [GB]2 | [^FA]2 G6 | %8
w: ||||
 G>G [Fd]2 [Fc]2 [FB]2 | [FA]2 [FA]2 [FG]4 | [FG]>[FG] [Fd]2 [Fc]2 [FB]2 | [FG]2 [Ec]6 | %12
w: ||||
 [EG]>[EG] [FA]2 ^GAdc | BA [FA]2 [EG]4 | [Fc]>[FA] [EG]2 [CE]2 [B,D]2- | [B,D][B,E] C6 | %16
w: ||||
 z2 [EG]2 [CE]2 [EG]2 | [CE]2 [_EA]4 [=EG]2- | [EG]2 [Ec]2 [EB]2 [EA]2 | %19
w: |||
 E2 [FA][FA] [FA][FA] [FG]2- | [FG]2 [Fd]2 [F^c]2 [Fd]2 | [F^c]2 [Fd]4 [FG]2- | %22
w: |||
 [FG]2 [Fd]2 [Fc]2 [FB]2 | [FA]2 G2 B2 A2 | F2 [EG]2 [CE]2 [EG]2 | [CE]2 [_EA]4 [=EG]2- | %26
w: ||||
 [EG]2 [Ec][Ec] [Ec][Ec] [Ec]2 | [Ec]2 B4- [DB]2 | z2 [CA][FA] [FA][FA] [FB]2 | %29
w: |||
 [Fc]2 [EG][EG] [EG][EG] [Ec]2 | [Ee]2 [Fd][Fd] [Fd][Fd] [FA]2 | [FB]2 [Ec]6- | [Ec]2 z2 z4 |] %33
w: ||||
V:2
 x8 | x8 | x8 | x8 | x8 | x8 | x8 | x8 | x8 | x8 | x8 | x8 | z4 F2 F2 | F2 z2 z4 | x8 | x8 | x8 | %17
 x8 | x8 | x8 | x8 | x8 | x8 | x8 | x8 | x8 | x8 | z2 E4 z2 | x8 | x8 | x8 | x8 | x8 |] %33
V:3
 [C,G,]>[C,G,] [C,C]2 [C,C]2 [C,C]2 | [C,C]2 [C,C]2 [C,C]4 | [C,C]>[C,C] [F,C]2 [F,A,]2 [F,A,]2 | %3
 [F,C]2 [C,C]6 | [C,G,]>[C,G,] [C,C]2 [C,C]2 [C,C]2 | [C,C]2 [C,C]2 [C,C]4 | %6
 [C,C]>[C,C] [D,B,]2 [D,B,]2 [D,D]2 | [D,C]2 [G,B,]6 | [G,B,]>[G,B,] [G,B,]2 [G,B,]2 [G,D]2 | %9
 [G,C]2 [G,B,]2 [G,B,]4 | [G,B,]>[G,B,] [G,B,]2 [G,B,]2 [G,D]2 | [G,B,]2 [C,C]6 | %12
 [C,C]>[C,C] [F,C]2 [F,C]2 [F,A,]2 | [F,C]2 [C,C]2 [C,C]4 | [C,A,]>[C,C] [C,C]2 [C,G,]2 [G,,F,]2- | %15
 [G,,F,][G,,F,] [C,E,]6 | z2 [C,C]2 [C,G,]2 [C,C]2 | [C,G,]2 [C,^F,]2 [C,A,]2 [C,C]2 | %18
 [C,C]2 [C,G,]2 [C,G,]2 [C,G,]2 | [C,G,]2 [G,B,][G,B,] [G,B,][G,B,] [G,B,]2- | %20
 [G,B,]2 [G,B,]2 [G,B,]2 [G,B,]2 | [G,B,]2 [G,B,]2 [G,B,]2 [G,B,]2 | %22
 [G,B,]2 [G,B,]2 [G,B,]2 [G,B,]2 | [G,B,]2 G,2 B,2 A,2 | F,2 [C,C]2 [C,G,]2 [C,C]2 | %25
 [C,G,]2 [C,^F,]2 [C,A,]2 [C,C]2 | [C,C]2 [C,G,][C,G,] [C,G,][C,G,] [C,G,]2 | [C,G,]2 [E,^G,]6 | %28
 z2 [F,A,][F,C] [F,C][F,C] [F,B,]2 | [F,A,]2 [G,C][G,C] [G,C][G,C] [G,C]2 | %30
 [G,C]2 [G,B,][G,B,] [G,B,][G,B,] [G,D]2 | [G,D]2 [C,C]6- | [C,C]2 z2 z4 |] %33

